!!!COM: Palestrina, Giovanni Perluigi da
!!!OPR: Emendemus in melius
!!!OTL: Agnus II
**kern	**kern	**kern	**kern	**kern
*Ibass	*Itenor	*Itenor	*Icalto	*Icant
!Bassus	!Tenor 2	!Tenor 1	!Altus	!Cantus
*clefF4	*clefGv2	*clefGv2	*clefG2	*clefG2
*k[b-]	*k[b-]	*k[b-]	*k[b-]	*k[b-]
*G:dor	*G:dor	*G:dor	*G:dor	*G:dor
*M4/2	*M4/2	*M4/2	*M4/2	*M4/2
=1	=1	=1	=1	=1
0r	0r	0G	0g	1r
.	.	.	.	[1dd
=2	=2	=2	=2	=2
0r	0r	1B-	1f	1dd]
.	.	1c	1e	1cc
=3	=3	=3	=3	=3
0r	0r	2G	2.d	2.b-
.	.	1B-	.	.
.	.	.	4e	4cc
.	.	.	4f	2dd
.	.	.	4g	.
.	.	4A	[2a	4cc
.	.	4G	.	4b-
=4	=4	=4	=4	=4
0r	0r	2A	2a]	2cc
.	.	2B-	4g	4b-
.	.	.	4f	4a
.	.	2c	2e	4g
.	.	.	.	4a
.	.	2G	[2g	2b-
=5	=5	=5	=5	=5
0D	0r	0d	2g]	1a
.	.	.	4f	.
.	.	.	4e	.
.	.	.	[1f	[1a
=6	=6	=6	=6	=6
1F	0r	1c	2f]	1a]
.	.	.	2f	.
1G	.	1B-	[1d	1g
=7	=7	=7	=7	=7
2D	0A	2A	1d]	2.f
1F	.	2D	.	.
.	.	.	.	4g
.	.	1F	1c	1a
4E	.	.	.	.
4D	.	.	.	.
=8	=8	=8	=8	=8
1E-	1c	1G	2r	1g
.	.	.	1g	.
2D	1d	[1A	.	1r
[2D	.	.	[2f	.
=9	=9	=9	=9	=9
2D]	2A	0A]	2f]	1a
4C	1c	.	4e	.
4BB-	.	.	4d	.
1AA	.	.	1e	1cc
.	4B-	.	.	.
.	4A	.	.	.
=10	=10	=10	=10	=10
1GG	1B-	0r	2g	1dd
.	.	.	2d	.
1r	2A	.	2f	2.cc
.	[2A	.	4e	.
.	.	.	4d	4b-
=11	=11	=11	=11	=11
0r	2A]	1F	2c	1a
.	4G	.	1d	.
.	4F	.	.	.
.	1E	1G	.	1g
.	.	.	2c#	.
=12	=12	=12	=12	=12
2r	1D	1A	1d	2f
2D	.	.	.	2f
1G	1r	1B-	2r	1g
.	.	.	2d	.
=13	=13	=13	=13	=13
2F	0r	2.c	1f	2a
2F	.	.	.	2a
.	.	4B-	.	.
2F	.	2A	1c	2f
2E	.	2G	.	2g
=14	=14	=14	=14	=14
2.D	2r	2B-	1d	2.f
.	2A	1A	.	.
4C	.	.	.	4e
1BB-	1d	.	1r	2f
.	.	[2G	.	2g
=15	=15	=15	=15	=15
1AA	2c	2G]	2r	1a
.	2c	2F#	2A	.
1GG	2c	1G	1d	2r
.	2B-	.	.	2d
=16	=16	=16	=16	=16
1r	2.A	0r	2c	2e
.	.	.	2c	2.f
.	4G	.	.	.
1D	1F	.	2A	.
.	.	.	.	4e
.	.	.	2A	[2d
=17	=17	=17	=17	=17
1G	1E	1r	1G	2d]
.	.	.	.	2c#
2F	1D	2r	2A	4d
.	.	.	.	4e
2F	.	2D	2d	4f
.	.	.	.	4g
=18	=18	=18	=18	=18
2F	1r	2F	2c	4a
.	.	.	.	4b-
2E	.	2G	2e	2cc
2.D	1A	2A	1f	1dd
.	.	2F	.	.
4C	.	.	.	.
=19	=19	=19	=19	=19
1BB-	1d	1B-	1.f	2r
.	.	.	.	2d
1C	2c	1G	.	1g
.	2c	.	4e	.
.	.	.	4d	.
=20	=20	=20	=20	=20
0r	2c	1G	2e	2g
.	2B-	.	2d	2g
.	2.A	2r	1e	2.cc
.	.	2c	.	.
.	4G	.	.	4b-
=21	=21	=21	=21	=21
1r	1F	2d	1f	1a
.	.	1c	.	.
2r	1G	.	2d	2g
[2G	.	2B-	[2d	[2b-
=22	=22	=22	=22	=22
2G]	0r	2G	2d]	2b-]
2D	.	1A	2d	2f
2F	.	.	2c	2a
2F	.	[2d	2F	2a
=23	=23	=23	=23	=23
1E	1r	2d]	1G	1g
.	.	2c#	.	.
1D	2r	2d	2A	2f
.	[2d	2D	[2f	2dd
=24	=24	=24	=24	=24
0r	2d]	1F	2f]	2a
.	2A	.	2c	2.cc
.	2c	1C	2e	.
.	.	.	.	4b-
.	2c	.	2e	4g
.	.	.	.	4a
=25	=25	=25	=25	=25
0r	1B-	1G	4g	4b-
.	.	.	4f	4cc
.	.	.	4e	1dd
.	.	.	4d	.
.	1A	1r	1e	.
.	.	.	.	2cc#
=26	=26	=26	=26	=26
2r	0r	1d	2d	2dd
1D	.	.	1f	2a
.	.	2A	.	2r
2AA	.	[2c	2e	2a
=27	=27	=27	=27	=27
2C	0r	4c]	2c	2e
.	.	4B-	.	.
2C	.	4G	2e	1g
.	.	4A	.	.
1BB-	.	4B-	2d	.
.	.	4c	.	.
.	.	[2d	2G	2d
=28	=28	=28	=28	=28
2.AA	2r	2d]	1A	2f
.	1A	2.c	.	4e
4BB-	.	.	.	4d
1C	.	.	2r	1e
.	.	4B-	.	.
.	2E	4G	[2g	.
.	.	4A	.	.
=29	=29	=29	=29	=29
1GG	2G	4B-	2g]	2d
.	.	4c	.	.
.	2G	2d	2d	1dd
1r	1F	1D	2f	.
.	.	.	2f	2a
=30	=30	=30	=30	=30
1C	2.E	1G	4g	2cc
.	.	.	4f	.
.	.	.	2e	2cc
.	4F	.	.	.
2GG	1G	2r	1d	1b-
[2G	.	[2d	.	.
=31	=31	=31	=31	=31
2G]	1D	2d]	1r	1a
2F#	.	2A	.	.
1G	1r	2B-	2r	2.dd
.	.	2G	[2g	.
.	.	.	.	4cc
=32	=32	=32	=32	=32
1GG	1G	2.B-	2g]	1b-
.	.	.	2d	.
.	.	4c	.	.
1r	2D	1d	2f	1a
.	[2d	.	2f	.
=33	=33	=33	=33	=33
1r	2d]	1A	1e	1a
.	2c#	.	.	.
2r	1d	1D	2d	2f
[2D	.	.	2f	2a
=34	=34	=34	=34	=34
2D]	[0D	2r	2f	2a
2GG	.	1d	2.g	2.b-
2.D	.	.	.	.
.	.	.	4f	4a
.	.	2A	2f	[2a
4C	.	.	.	.
=35	=35	=35	=35	=35
2BB-	1D_	2B-	1d	4a]
.	.	.	.	4g
2GG	.	2B-	.	1g
1D	1D_	1A	1d	.
.	.	.	.	2f#
=36	=36	=36	=36	=36
0GG	0D]	0G	0d	0g
==	==	==	==	==
*-	*-	*-	*-	*-
!!!CDT: 1525/^1526/-1594/2/2
!!!OCY: Italia
!!!AGN: Mass (Parody)
!!!AST: renaissance, vocal
!!!ASW: Antiphon
!!!PWK: Masses, Book 7
!!!RNB: Cadence finals: D
!!!YOR: Le Opere Complete, v. 23, p. 61
!!!YOO: Rome, Italy: Fratelli Scalera
!!!END: 1992//
!!!EED: John Miller
!!!YEC: Copyright 2000, John Miller
!!!YEN: United States of America
!!!YEM: Rights to all derivative electronic formats reserved.
!!!YEM: Refer to licensing agreement for further details.
!!!YEM: This file must be accompanied by the licensing agreement.
!!!YEM: A copy of the licensing agreement may be found at http://www.music-cog.ohio-state.edu/HumdrumDatabases/Palestrina/license.txt
!!!EMD: converted to Humdrum by Bret Aarden
